X: 20
T: Good Natured Man, The
C: James Hill
Z: JACKB
S: https://thesession.org/tunes/312#setting53976
R: hornpipe
M: 4/4
L: 1/8
K: Gmaj
|:d2|g3b d3c|BcdB G2AB|c3e A3G|FGAB cdef|
g3b d3c|BcdB G2AB|cedc BAGF|A2 GF G2:|
|:Bc|dBdB g3d|ecec a3e|f3d gfgb|agfe defd|
g3b d3c|BcdB G2AB|cedc BAGF|A2 GF G2:|

